icon-themes/breeze_svg/cmd/lc_entirerow.svg

<svg viewBox="0 0 24 24" xmlns="http://www.w3.org/2000/svg"><path d="m4 4v1 15h1 14 1v-15-1zm1 1h4v1 1h-1-3zm5 0h4v1 1h-4v-1zm5 0h4v2h-3-1v-1zm-10 3h3 1v1h1v-1h4v1h1v-1h4v1 1 1 2 1 1 1h-4v-1h-1v1h-4v-1h-1v1h-1-3v-1-1-1-2-1-1zm0 9h3 1v1.099609.900391h-4zm5 0h4v2h-4zm5 0h4v2h-4z" fill="#4d4d4d"/><path d="m5 9v.7070312.2929688h.2929688l4 4h-4.2929688v1h14v-1h-.292969l-4-4h4.292969v-1h-5.292969-3.9999998-4zm1.7070312 1h2.5859376l4.0000002 4h-2.585938zm3.9999998 0h2.585938l4 4h-2.585938z" fill="#1d99f3"/></svg>

<svg xmlns="http://www.w3.org/2000/svg" viewBox="0 0 24 24">
 <path 
     style="fill:#4d4d4d" 
     d="M 4 4 L 4 5 L 4 20 L 5 20 L 19 20 L 20 20 L 20 5 L 20 4 L 4 4 z M 5 5 L 9 5 L 9 6 L 9 7 L 8 7 L 5 7 L 5 5 z M 10 5 L 14 5 L 14 6 L 14 7 L 10 7 L 10 6 L 10 5 z M 15 5 L 19 5 L 19 7 L 16 7 L 15 7 L 15 6 L 15 5 z M 5 8 L 8 8 L 9 8 L 9 9 L 10 9 L 10 8 L 14 8 L 14 9 L 15 9 L 15 8 L 19 8 L 19 9 L 19 10 L 19 11 L 19 13 L 19 14 L 19 15 L 19 16 L 15 16 L 15 15 L 14 15 L 14 16 L 10 16 L 10 15 L 9 15 L 9 16 L 8 16 L 5 16 L 5 15 L 5 14 L 5 13 L 5 11 L 5 10 L 5 9 L 5 8 z M 5 17 L 8 17 L 9 17 L 9 18.099609 L 9 19 L 5 19 L 5 17 z M 10 17 L 14 17 L 14 19 L 10 19 L 10 17 z M 15 17 L 19 17 L 19 19 L 15 19 L 15 17 z "
     />
 <path 
     style="fill:#1d99f3" 
     d="M 5 9 L 5 9.7070312 L 5 10 L 5.2929688 10 L 9.2929688 14 L 5 14 L 5 15 L 19 15 L 19 14 L 18.707031 14 L 14.707031 10 L 19 10 L 19 9 L 13.707031 9 L 9.7070312 9 L 5.7070312 9 L 5 9 z M 6.7070312 10 L 9.2929688 10 L 13.292969 14 L 10.707031 14 L 6.7070312 10 z M 10.707031 10 L 13.292969 10 L 17.292969 14 L 14.707031 14 L 10.707031 10 z "
     />
 </svg>
